school/img/country/TJ.svg

<svg width="13" height="12" viewBox="0 0 13 12" fill="none" xmlns="http://www.w3.org/2000/svg">
<rect x="0.25" y="0.25" width="12.5" height="11.5" rx="1.75" fill="white" stroke="#F5F5F5" stroke-width="0.5"/>
<mask id="mask0" mask-type="alpha" maskUnits="userSpaceOnUse" x="0" y="0" width="13" height="12">
<rect x="0.25" y="0.25" width="12.5" height="11.5" rx="1.75" fill="white" stroke="white" stroke-width="0.5"/>
</mask>
<g mask="url(#mask0)">
<path fill-rule="evenodd" clip-rule="evenodd" d="M0 4H13V0H0V4Z" fill="#D9101C"/>
<path fill-rule="evenodd" clip-rule="evenodd" d="M0 12H13V8H0V12Z" fill="#0F7811"/>
<path fill-rule="evenodd" clip-rule="evenodd" d="M6.19042 5.2C6.19042 5.42091 6.05184 5.6 5.88089 5.6C5.70995 5.6 5.57137 5.42091 5.57137 5.2C5.57137 4.97909 5.70995 4.8 5.88089 4.8C6.05184 4.8 6.19042 4.97909 6.19042 5.2ZM6.80944 6C6.80944 6.07235 6.79458 6.22603 6.76858 6.4H7.02851C7.24943 6.4 7.42851 6.57909 7.42851 6.8C7.42851 7.02091 7.24943 7.2 7.02851 7.2H6.50013L6.49992 7.2L6.49971 7.2H5.97137C5.75046 7.2 5.57137 7.02091 5.57137 6.8C5.57137 6.57909 5.75046 6.4 5.97137 6.4H6.23126C6.20526 6.22603 6.19039 6.07235 6.19039 6C6.19039 5.77909 6.32897 5.6 6.49992 5.6C6.67086 5.6 6.80944 5.77909 6.80944 6ZM7.42847 5.2C7.42847 5.42091 7.28989 5.6 7.11895 5.6C6.948 5.6 6.80942 5.42091 6.80942 5.2C6.80942 4.97909 6.948 4.8 7.11895 4.8C7.28989 4.8 7.42847 4.97909 7.42847 5.2ZM8.35706 6.4C8.52801 6.4 8.66658 6.22091 8.66658 6C8.66658 5.77909 8.52801 5.6 8.35706 5.6C8.18612 5.6 8.04754 5.77909 8.04754 6C8.04754 6.22091 8.18612 6.4 8.35706 6.4ZM4.9523 6C4.9523 6.22091 4.81372 6.4 4.64278 6.4C4.47183 6.4 4.33325 6.22091 4.33325 6C4.33325 5.77909 4.47183 5.6 4.64278 5.6C4.81372 5.6 4.9523 5.77909 4.9523 6Z" fill="#FAD14E"/>
</g>
</svg>

<svg width="13" height="12" fill="none" xmlns="http://www.w3.org/2000/svg"><rect x=".25" y=".25" width="12.5" height="11.5" rx="1.75" fill="#fff" stroke="#F5F5F5" stroke-width=".5"/><mask id="a" maskUnits="userSpaceOnUse" x="0" y="0" width="13" height="12"><rect x=".25" y=".25" width="12.5" height="11.5" rx="1.75" fill="#fff" stroke="#fff" stroke-width=".5"/></mask><g mask="url(#a)" fill-rule="evenodd" clip-rule="evenodd"><path d="M0 4h13V0H0v4z" fill="#D9101C"/><path d="M0 12h13V8H0v4z" fill="#0F7811"/><path d="M6.19 5.2c0 .22-.138.4-.31.4-.17 0-.309-.18-.309-.4 0-.22.139-.4.31-.4.17 0 .31.18.31.4zm.62.8c0 .072-.015.226-.041.4h.26a.4.4 0 110 .8H5.97a.4.4 0 010-.8h.26a3.342 3.342 0 01-.04-.4c0-.22.138-.4.309-.4.17 0 .31.18.31.4zm.618-.8c0 .22-.138.4-.31.4-.17 0-.309-.18-.309-.4 0-.22.139-.4.31-.4.17 0 .31.18.31.4zm.93 1.2c.17 0 .309-.18.309-.4 0-.22-.139-.4-.31-.4-.17 0-.31.18-.31.4 0 .22.14.4.31.4zM4.951 6c0 .22-.138.4-.31.4-.17 0-.309-.18-.309-.4 0-.22.139-.4.31-.4.17 0 .31.18.31.4z" fill="#FAD14E"/></g></svg>
